X: 305802
T: COTILLION No. 28. WASHINGTON SETT tune 3
C:
%R: reel
B: Elias Howe "The Musician's Companion" Part 3 1844 p.138 #3
S: http://imslp.org/wiki/The_Musician's_Companion_(Howe,_Elias)
Z: 2015 John Chambers <jc:trillian.mit.edu>
M: 2/4
L: 1/16
K: C
% - - - - - - - - - - - - - - - - - - - - - - - - - - - - -
G,2 |\
C2GF (3(EDC) (3(EDC) | F2dc (3(BAG) (3(BAG) |\
[1 c>cc>d e>c[fd]>[eB] | dcBA GFED :|\
[2 c>cc>d e>cd>B | c2e2c2 H|]
ef |\
gefe dcBc | acBA GFED | CEGF EGcB | Acfe d2ef |\
gedc Bcdc | acBA | GFED | CEGF EGcB | AfdB "^D.C."c2 |]
K: Cm
cd |\
egg2 e2c2 | d2=B2 c2G2 | egg2 e2c2 | gaga g2G2 |\
egg2 e2c2 | d2=B2 c2G2 | EGEG DFDF | C2C2"^D.C."C2 |]
% - - - - - - - - - - Dance description - - - - - - - - - -
%%begintext align
%% First 4 right and left,
%% balance,
%% swing round.
%% Sides the same.
%%endtext
% - - - - - - - - - - - - - - - - - - - - - - - - - - - - -
%%sep 1 1 300


